X:64
T:St Anne's Reel
M:C|
R:reel
C:Traditional
K:D
f3g fedB | A2 FA DAFA | B2 GB EBGB | A2 FA DAFA |
fffg fedB | A2 FA DAFA | BBed cABc | eddc d2e2 :|
|: f2fg fdef | aggf g2gf | edcB ABce | baag a2ag |
f2fg fdef | aggf g2gf | edcB ABcd | eddc d2de :|

%%newpage

